flaticon/arrows/spin-1.svg

<svg xmlns="http://www.w3.org/2000/svg" width="32" height="32" viewBox="0 0 24 24">
    <path d="M20.226562 3.777344C18.234375 1.785156 15.589844.691406 12.769531.691406 12.753906.691406 12.734375.691406 12.714844.691406 10.242188.703125 7.894531 1.558594 6 3.113281L6 .460938C6 .207031 5.792969 0 5.539062 0 5.285156 0 5.078125.207031 5.078125.460938L5.078125 4.152344C5.078125 4.214844 5.089844 4.273438 5.113281 4.332031 5.160156 4.441406 5.25 4.53125 5.363281 4.578125 5.417969 4.601562 5.476562 4.617188 5.539062 4.617188L9.691406 4.617188C9.945312 4.617188 10.152344 4.410156 10.152344 4.152344 10.152344 3.898438 9.945312 3.691406 9.691406 3.691406L6.765625 3.691406C8.464844 2.359375 10.535156 1.625 12.71875 1.617188 12.738281 1.617188 12.753906 1.617188 12.769531 1.617188 15.34375 1.617188 17.757812 2.613281 19.570312 4.429688 23.15625 8.015625 23.328125 13.828125 19.960938 17.664062 19.792969 17.855469 19.8125 18.148438 20.003906 18.316406 20.09375 18.390625 20.199219 18.429688 20.308594 18.429688 20.4375 18.429688 20.566406 18.375 20.65625 18.273438 24.34375 14.070312 24.152344 7.703125 20.226562 3.777344zM18.636719 19.421875C18.582031 19.398438 18.523438 19.382812 18.460938 19.382812L14.308594 19.382812C14.054688 19.382812 13.847656 19.589844 13.847656 19.847656 13.847656 20.101562 14.054688 20.308594 14.308594 20.308594L17.234375 20.308594C15.535156 21.640625 13.464844 22.375 11.28125 22.382812 8.683594 22.402344 6.253906 21.398438 4.429688 19.570312.84375 15.984375.671875 10.171875 4.039062 6.332031 4.207031 6.140625 4.191406 5.851562 4 5.683594 3.808594 5.515625 3.515625 5.535156 3.347656 5.722656-.34375 9.925781-.152344 16.292969 3.777344 20.222656 5.765625 22.214844 8.410156 23.308594 11.230469 23.308594 11.246094 23.308594 11.265625 23.308594 11.285156 23.308594 13.757812 23.296875 16.105469 22.441406 18 20.886719L18 23.539062C18 23.792969 18.207031 24 18.460938 24 18.714844 24 18.921875 23.792969 18.921875 23.539062L18.921875 19.847656C18.921875 19.785156 18.910156 19.726562 18.886719 19.667969 18.839844 19.558594 18.75 19.464844 18.636719 19.421875zM18.636719 19.421875"/>
</svg>

<svg xmlns="http://www.w3.org/2000/svg" width="32" height="32" viewBox="0 0 24 24">
    <path d="M20.227 3.777A10.467 10.467 0 0 0 12.77.691h-.055C10.242.703 7.895 1.56 6 3.113V.461a.462.462 0 0 0-.922 0v3.691c0 .063.012.121.035.18.047.11.137.2.25.246.055.024.114.04.176.04h4.152a.463.463 0 0 0 0-.927H6.766a9.66 9.66 0 0 1 5.953-2.074h.05c2.575 0 4.989.996 6.801 2.813 3.586 3.586 3.758 9.398.39 13.234a.463.463 0 0 0 .349.766.466.466 0 0 0 .347-.157c3.688-4.203 3.496-10.57-.43-14.496zm0 0M18.637 19.422a.444.444 0 0 0-.176-.04h-4.152a.463.463 0 0 0 0 .927h2.925a9.66 9.66 0 0 1-5.953 2.074A9.504 9.504 0 0 1 4.43 19.57C.844 15.984.672 10.172 4.04 6.332A.458.458 0 0 0 4 5.684a.466.466 0 0 0-.652.039c-3.692 4.203-3.5 10.57.43 14.5a10.452 10.452 0 0 0 7.452 3.086h.055A10.618 10.618 0 0 0 18 20.887v2.652a.462.462 0 0 0 .922 0v-3.691a.454.454 0 0 0-.285-.426zm0 0"/>
</svg>
